Numix/16/status/indicator-keyboard-Is-2.svg

<?xml version="1.0" encoding="UTF-8" standalone="no"?>
<svg
   xmlns:dc="http://purl.org/dc/elements/1.1/"
   xmlns:cc="http://creativecommons.org/ns#"
   xmlns:rdf="http://www.w3.org/1999/02/22-rdf-syntax-ns#"
   xmlns:svg="http://www.w3.org/2000/svg"
   xmlns="http://www.w3.org/2000/svg"
   xmlns:sodipodi="http://sodipodi.sourceforge.net/DTD/sodipodi-0.dtd"
   xmlns:inkscape="http://www.inkscape.org/namespaces/inkscape"
   viewBox="0 0 16 16"
   id="svg2"
   version="1.1"
   inkscape:version="0.91 r13725"
   sodipodi:docname="indicator-keyboard-Is-2.svg">
  <metadata
     id="metadata14">
    <rdf:RDF>
      <cc:Work
         rdf:about="">
        <dc:format>image/svg+xml</dc:format>
        <dc:type
           rdf:resource="http://purl.org/dc/dcmitype/StillImage" />
      </cc:Work>
    </rdf:RDF>
  </metadata>
  <defs
     id="defs12" />
  <sodipodi:namedview
     pagecolor="#ffffff"
     bordercolor="#666666"
     borderopacity="1"
     objecttolerance="10"
     gridtolerance="10"
     guidetolerance="10"
     inkscape:pageopacity="0"
     inkscape:pageshadow="2"
     inkscape:window-width="459"
     inkscape:window-height="369"
     id="namedview10"
     showgrid="false"
     inkscape:zoom="14.75"
     inkscape:cx="8"
     inkscape:cy="8"
     inkscape:window-x="65"
     inkscape:window-y="24"
     inkscape:window-maximized="0"
     inkscape:current-layer="svg2" />
  <path
     style="fill:#ececec;fill-opacity:1"
     d="M 1.5996094 0 C 0.71320937 2.9605947e-16 0 0.71320937 0 1.5996094 L 0 14.400391 C 2.9605947e-16 15.286791 0.71320937 16 1.5996094 16 L 14.400391 16 C 15.286791 16 16 15.286791 16 14.400391 L 16 1.5996094 C 16 0.71320937 15.286791 0 14.400391 0 L 1.5996094 0 z M 3.9609375 4.859375 L 4.5722656 4.859375 L 4.5722656 11.095703 L 3.9609375 11.095703 L 3.9609375 4.859375 z M 7.4160156 6.3359375 C 7.7340156 6.3359375 7.9952187 6.3620156 8.1992188 6.4160156 C 8.4092187 6.4700156 8.556625 6.5185469 8.640625 6.5605469 L 8.5058594 7.0820312 C 8.4338594 7.0460313 8.3107187 6.9975 8.1367188 6.9375 C 7.9687187 6.8775 7.7186719 6.8476563 7.3886719 6.8476562 C 7.2566719 6.8476562 7.1317188 6.8625781 7.0117188 6.8925781 C 6.8977187 6.9165781 6.7950781 6.9595312 6.7050781 7.0195312 C 6.6150781 7.0735313 6.5442344 7.144375 6.4902344 7.234375 C 6.4362344 7.318375 6.4082031 7.4247813 6.4082031 7.5507812 C 6.4082031 7.6767812 6.4324687 7.7830469 6.4804688 7.8730469 C 6.5284687 7.9630469 6.5975 8.0451875 6.6875 8.1171875 C 6.7835 8.1831875 6.8972969 8.2466406 7.0292969 8.3066406 C 7.1672969 8.3666406 7.3240469 8.4319062 7.4980469 8.5039062 C 7.6780469 8.5759062 7.8477656 8.6505156 8.0097656 8.7285156 C 8.1777656 8.8005156 8.3251719 8.8900469 8.4511719 8.9980469 C 8.5771719 9.1000469 8.6798125 9.2269531 8.7578125 9.3769531 C 8.8358125 9.5209531 8.875 9.7037813 8.875 9.9257812 C 8.875 10.345781 8.7144844 10.664859 8.3964844 10.880859 C 8.0844844 11.096859 7.6573281 11.203125 7.1113281 11.203125 C 6.7033281 11.203125 6.3898281 11.167703 6.1738281 11.095703 C 5.9578281 11.029703 5.8141875 10.979359 5.7421875 10.943359 L 5.8945312 10.412109 C 5.9125313 10.424109 5.9517187 10.444609 6.0117188 10.474609 C 6.0717188 10.498609 6.1538594 10.528453 6.2558594 10.564453 C 6.3578594 10.594453 6.4772344 10.622484 6.6152344 10.646484 C 6.7592344 10.670484 6.9253281 10.681641 7.1113281 10.681641 C 7.4473281 10.681641 7.7215 10.627531 7.9375 10.519531 C 8.1595 10.405531 8.2714844 10.217125 8.2714844 9.953125 C 8.2714844 9.827125 8.2509844 9.7189063 8.2089844 9.6289062 C 8.1729844 9.5389062 8.1095313 9.4587188 8.0195312 9.3867188 C 7.9295312 9.3147187 7.8101563 9.2456875 7.6601562 9.1796875 C 7.5161563 9.1136875 7.3351406 9.0353125 7.1191406 8.9453125 C 6.9451406 8.8733125 6.781 8.8005156 6.625 8.7285156 C 6.469 8.6505156 6.3309375 8.56475 6.2109375 8.46875 C 6.0909375 8.36675 5.993875 8.2454219 5.921875 8.1074219 C 5.849875 7.9694219 5.8144531 7.8015156 5.8144531 7.6035156 C 5.8144531 7.2255156 5.9562812 6.9195469 6.2382812 6.6855469 C 6.5262813 6.4515469 6.9180156 6.3359375 7.4160156 6.3359375 z M 10.712891 8.7539062 C 11.10679 8.7539062 11.402663 8.851875 11.601562 9.046875 C 11.800463 9.237975 11.900391 9.5044563 11.900391 9.8476562 C 11.900391 9.9997563 11.872959 10.14475 11.818359 10.28125 C 11.763759 10.41385 11.689303 10.543169 11.595703 10.667969 C 11.506003 10.792769 11.402156 10.912297 11.285156 11.029297 C 11.168156 11.146297 11.048634 11.263859 10.927734 11.380859 C 10.826334 11.478359 10.728359 11.578288 10.630859 11.679688 C 10.537259 11.777187 10.451047 11.877116 10.373047 11.978516 C 10.298947 12.076016 10.238206 12.172031 10.191406 12.269531 C 10.148506 12.363131 10.126953 12.457181 10.126953 12.550781 L 10.126953 12.5625 L 12.039062 12.5625 L 12.039062 12.896484 L 9.7050781 12.896484 C 9.7050781 12.888684 9.7031187 12.874969 9.6992188 12.855469 L 9.6992188 12.755859 C 9.6992188 12.572559 9.7325281 12.402094 9.7988281 12.246094 C 9.8651281 12.086194 9.949381 11.937275 10.050781 11.796875 C 10.156081 11.656475 10.271684 11.525197 10.396484 11.404297 C 10.525184 11.283397 10.648625 11.165834 10.765625 11.052734 C 10.863125 10.959134 10.953263 10.869003 11.039062 10.783203 C 11.128763 10.693503 11.207138 10.603366 11.273438 10.509766 C 11.339738 10.416166 11.392641 10.316238 11.431641 10.210938 C 11.470641 10.105638 11.490234 9.9900344 11.490234 9.8652344 C 11.490234 9.5922344 11.415778 9.39825 11.267578 9.28125 C 11.123278 9.16035 10.941049 9.0996094 10.71875 9.0996094 C 10.59395 9.0996094 10.482266 9.1152844 10.384766 9.1464844 C 10.287266 9.1776844 10.201053 9.2149125 10.126953 9.2578125 C 10.056753 9.2968125 9.9960128 9.3379594 9.9453125 9.3808594 C 9.8946125 9.4237594 9.8573844 9.4570688 9.8339844 9.4804688 L 9.6347656 9.2167969 C 9.6581656 9.1894969 9.6993125 9.1503094 9.7578125 9.0996094 C 9.8202125 9.0450094 9.8966281 8.9921062 9.9863281 8.9414062 C 10.079928 8.8907063 10.187694 8.8476 10.308594 8.8125 C 10.429494 8.7735 10.564691 8.7539063 10.712891 8.7539062 z "
     id="path4" />
</svg>

<svg xmlns="http://www.w3.org/2000/svg" viewBox="0 0 16 16">
 <path d="m 1.6 0 c -0.886 0 -1.6 0.713 -1.6 1.6 l 0 12.801 c 0 0.886 0.713 1.6 1.6 1.6 l 12.801 0 c 0.886 0 1.6 -0.713 1.6 -1.6 l 0 -12.801 c 0 -0.886 -0.713 -1.6 -1.6 -1.6 l -12.801 0 z m 2.361 4.859 l 0.611 0 l 0 6.236 l -0.611 0 l 0 -6.236 z m 3.455 1.477 c 0.318 0 0.579 0.026 0.783 0.08 c 0.21 0.054 0.357 0.103 0.441 0.145 l -0.135 0.521 c -0.072 -0.036 -0.195 -0.085 -0.369 -0.145 c -0.168 -0.06 -0.418 -0.09 -0.748 -0.09 c -0.132 0 -0.257 0.015 -0.377 0.045 c -0.114 0.024 -0.217 0.067 -0.307 0.127 c -0.09 0.054 -0.161 0.125 -0.215 0.215 c -0.054 0.084 -0.082 0.19 -0.082 0.316 c 0 0.126 0.024 0.232 0.072 0.322 c 0.048 0.09 0.117 0.172 0.207 0.244 c 0.096 0.066 0.21 0.129 0.342 0.189 c 0.138 0.06 0.295 0.125 0.469 0.197 c 0.18 0.072 0.35 0.147 0.512 0.225 c 0.168 0.072 0.315 0.162 0.441 0.27 c 0.126 0.102 0.229 0.229 0.307 0.379 c 0.078 0.144 0.117 0.327 0.117 0.549 c 0 0.42 -0.161 0.739 -0.479 0.955 c -0.312 0.216 -0.739 0.322 -1.285 0.322 c -0.408 0 -0.721 -0.035 -0.938 -0.107 c -0.216 -0.066 -0.36 -0.116 -0.432 -0.152 l 0.152 -0.531 c 0.018 0.012 0.057 0.033 0.117 0.063 c 0.06 0.024 0.142 0.054 0.244 0.09 c 0.102 0.03 0.221 0.058 0.359 0.082 c 0.144 0.024 0.31 0.035 0.496 0.035 c 0.336 0 0.61 -0.054 0.826 -0.162 c 0.222 -0.114 0.334 -0.302 0.334 -0.566 c 0 -0.126 -0.021 -0.234 -0.063 -0.324 c -0.036 -0.09 -0.099 -0.17 -0.189 -0.242 c -0.09 -0.072 -0.209 -0.141 -0.359 -0.207 c -0.144 -0.066 -0.325 -0.144 -0.541 -0.234 c -0.174 -0.072 -0.338 -0.145 -0.494 -0.217 c -0.156 -0.078 -0.294 -0.164 -0.414 -0.26 c -0.12 -0.102 -0.217 -0.223 -0.289 -0.361 c -0.072 -0.138 -0.107 -0.306 -0.107 -0.504 c 0 -0.378 0.142 -0.684 0.424 -0.918 c 0.288 -0.234 0.68 -0.35 1.178 -0.35 z m 3.297 2.418 c 0.394 0 0.69 0.098 0.889 0.293 c 0.199 0.191 0.299 0.458 0.299 0.801 c 0 0.152 -0.027 0.297 -0.082 0.434 c -0.055 0.133 -0.129 0.262 -0.223 0.387 c -0.09 0.125 -0.194 0.244 -0.311 0.361 c -0.117 0.117 -0.237 0.235 -0.357 0.352 c -0.101 0.098 -0.199 0.197 -0.297 0.299 c -0.094 0.097 -0.18 0.197 -0.258 0.299 c -0.074 0.097 -0.135 0.194 -0.182 0.291 c -0.043 0.094 -0.064 0.188 -0.064 0.281 l 0 0.012 l 1.912 0 l 0 0.334 l -2.334 0 c 0 -0.008 -0.002 -0.022 -0.006 -0.041 l 0 -0.1 c 0 -0.183 0.033 -0.354 0.1 -0.51 c 0.066 -0.16 0.151 -0.309 0.252 -0.449 c 0.105 -0.14 0.221 -0.272 0.346 -0.393 c 0.129 -0.121 0.252 -0.238 0.369 -0.352 c 0.098 -0.094 0.188 -0.184 0.273 -0.27 c 0.09 -0.09 0.168 -0.18 0.234 -0.273 c 0.066 -0.094 0.119 -0.194 0.158 -0.299 c 0.039 -0.105 0.059 -0.221 0.059 -0.346 c 0 -0.273 -0.074 -0.467 -0.223 -0.584 c -0.144 -0.121 -0.327 -0.182 -0.549 -0.182 c -0.125 0 -0.236 0.016 -0.334 0.047 c -0.098 0.031 -0.184 0.068 -0.258 0.111 c -0.07 0.039 -0.131 0.08 -0.182 0.123 c -0.051 0.043 -0.088 0.076 -0.111 0.1 l -0.199 -0.264 c 0.023 -0.027 0.065 -0.066 0.123 -0.117 c 0.062 -0.055 0.139 -0.108 0.229 -0.158 c 0.094 -0.051 0.201 -0.094 0.322 -0.129 c 0.121 -0.039 0.256 -0.059 0.404 -0.059 z" style="fill:#ececec;fill-opacity:1"/>
</svg>
